svg/editor/numbers_90_sort_descending_line.svg

<?xml version="1.0" encoding="UTF-8"?>
<svg width="24px" height="24px" viewBox="0 0 24 24" version="1.1" xmlns="http://www.w3.org/2000/svg" xmlns:xlink="http://www.w3.org/1999/xlink">
    <title>numbers_90_sort_descending_line</title>
    <g id="Icon" stroke="none" stroke-width="1" fill="none" fill-rule="evenodd">
        <g id="Editor" transform="translate(-288.000000, -288.000000)">
            <g id="numbers_90_sort_descending_line" transform="translate(288.000000, 288.000000)">
                <path d="M24,0 L24,24 L0,24 L0,0 L24,0 Z M12.5935,23.2578 L12.5819,23.2595 L12.5109,23.295 L12.4919,23.2987 L12.4767,23.295 L12.4057,23.2595 C12.3958,23.2564 12.387,23.259 12.3821,23.2649 L12.378,23.2758 L12.3609,23.7031 L12.3659,23.7235 L12.3769,23.7357 L12.4805,23.8097 L12.4953,23.8136 L12.5071,23.8097 L12.6107,23.7357 L12.6233,23.7197 L12.6267,23.7031 L12.6096,23.2758 C12.6076,23.2657 12.601,23.2593 12.5935,23.2578 Z M12.8584,23.1453 L12.8445,23.1473 L12.6598,23.2397 L12.6499,23.2499 L12.6472,23.2611 L12.6651,23.6906 L12.6699,23.7034 L12.6784,23.7105 L12.8793,23.8032 C12.8914,23.8069 12.9022,23.803 12.9078,23.7952 L12.9118,23.7812 L12.8777,23.1665 C12.8753,23.1546 12.8674,23.147 12.8584,23.1453 Z M12.143,23.1473 C12.1332,23.1424 12.1222,23.1453 12.1156,23.1526 L12.1099,23.1665 L12.0758,23.7812 C12.0751,23.7927 12.0828,23.8019 12.0926,23.8046 L12.1083,23.8032 L12.3092,23.7105 L12.3186,23.7024 L12.3225,23.6906 L12.3404,23.2611 L12.3372,23.2485 L12.3278,23.2397 L12.143,23.1473 Z" id="MingCute" fill-rule="nonzero"></path>
                <path d="M5,6 C5,4.34315 6.34315,3 8,3 C9.59767679,3 10.9036606,4.24892392 10.9949073,5.82372764 L11,6.01001 C11,6.4177 10.961,6.80882 10.8925,7.18104 C10.6288,8.6137 9.92878,9.76111 9.32239,10.5328 C9.01633,10.9223 8.72545,11.2272 8.50824,11.4371 C8.38424,11.557 8.25768,11.6748 8.12278,11.7824 C7.69068,12.1264 7.06156,12.0549 6.71761,11.6228 C6.40043154,11.2243077 6.43621497,10.6585538 6.78255076,10.3031501 L7.11827,9.9991 L7.11827,9.9991 L7.34241608,9.77138032 C7.4663768,9.639304 7.60577,9.48043 7.7498,9.29713 C7.8235,9.20334 7.89762,9.10416 7.971,8.99986 C6.3275,8.9843 5,7.64718 5,6 Z M8,5 C7.44772,5 7,5.44772 7,6 C7,6.55228 7.44772,7 8,7 C8.55228,7 9,6.55228 9,6 C9,5.44772 8.55228,5 8,5 Z M18,5 C18,4.44772 17.5523,4 17,4 C16.4477,4 16,4.44772 16,5 L16,17.4139 L14.8787,16.2926 C14.4882,15.9021 13.855,15.9021 13.4645,16.2926 C13.0739,16.6831 13.0739,17.3163 13.4645,17.7068 L16.2929,20.5352 C16.6834,20.9258 17.3166,20.9258 17.7071,20.5352 L20.5355,17.7068 C20.9261,17.3163 20.9261,16.6831 20.5355,16.2926 C20.145,15.9021 19.5118,15.9021 19.1213,16.2926 L18,17.4139 L18,5 Z M8,13 C6.34315,13 5,14.3431 5,16 L5,18 C5,19.6569 6.34315,21 8,21 C9.65685,21 11,19.6569 11,18 L11,16 C11,14.3431 9.65685,13 8,13 Z M7,16 C7,15.4477 7.44772,15 8,15 C8.55228,15 9,15.4477 9,16 L9,18 C9,18.5523 8.55228,19 8,19 C7.44772,19 7,18.5523 7,18 L7,16 Z" id="形状" fill="#09244B"></path>
            </g>
        </g>
    </g>
</svg>

<svg xmlns="http://www.w3.org/2000/svg" width="24" height="24"><g fill="none" fill-rule="evenodd"><path d="M24 0v24H0V0h24ZM12.594 23.258l-.012.002-.071.035-.02.004-.014-.004-.071-.036c-.01-.003-.019 0-.024.006l-.004.01-.017.428.005.02.01.013.104.074.015.004.012-.004.104-.074.012-.016.004-.017-.017-.427c-.002-.01-.009-.017-.016-.018Zm.264-.113-.014.002-.184.093-.01.01-.003.011.018.43.005.012.008.008.201.092c.012.004.023 0 .029-.008l.004-.014-.034-.614c-.003-.012-.01-.02-.02-.022Zm-.715.002a.023.023 0 0 0-.027.006l-.006.014-.034.614c0 .012.007.02.017.024l.015-.002.201-.093.01-.008.003-.011.018-.43-.003-.012-.01-.01-.184-.092Z"/><path fill="#09244B" d="M5 6a3 3 0 0 1 5.995-.176L11 6.01c0 .408-.039.799-.107 1.171-.264 1.433-.964 2.58-1.57 3.352-.307.39-.598.694-.815.904-.124.12-.25.238-.385.345a1 1 0 0 1-1.34-1.479L7.118 10l.224-.228A7.153 7.153 0 0 0 7.971 9 3 3 0 0 1 5 6Zm3-1a1 1 0 1 0 0 2 1 1 0 0 0 0-2Zm10 0a1 1 0 1 0-2 0v12.414l-1.121-1.121a1 1 0 0 0-1.415 1.414l2.829 2.828a1 1 0 0 0 1.414 0l2.828-2.828a1 1 0 1 0-1.414-1.414L18 17.413V5ZM8 13a3 3 0 0 0-3 3v2a3 3 0 1 0 6 0v-2a3 3 0 0 0-3-3Zm-1 3a1 1 0 1 1 2 0v2a1 1 0 1 1-2 0v-2Z"/></g></svg>
